X: 27103
T: Miss Lyall
R: strathspey
M: 4/4
K: Adorian
c/B/|A<A,A,>B, ~C>D~E>F|G<GB>A ~G2 Gc/B/|A<A,A,>B, ~C>D Ec/d/|e>cd>B A2 Ac/B/|
A<A,A,>B, ~C>D~E>F|G<GB>A ~G2 Gc/d/|e>cd>B c>AB>G|E>A (c/B/).A/.^G/|A2A||
c/B/|Aa~a>b g>g (a/g/)f/g/|eaab (Tg>f/g//) f>g|Aa~a>b g>g (a/g/f/g/)|e>cd>B A3 c/B/|
Aa~a>b g>g a/g/f/g/|ea~a>b (Tg>f/g//) f>g|(3agf (3efg (3edc (3Bcd|e>cd>B A2 A||

